X: 16966
T: Hay-Makers, The
R: jig
M: 6/8
K: Gmajor
|:D|G3 AA/B/c|BGB A2 D|G2 B A2 c|BAF G2:|
|:A|B2 d g2 d|ece d2 G|BB/c/d g2 d|ege c2:|
|:d|c2 e dBG|AGA B2 d|c2 e dBG|AGF G2:|

